X:1
T: Scotch Mist
C:
R:Strathspey
Q: 128
K:C
M:4/4
L:1/16
|:E2|G3E Gc3 A3F Ac3|B3c d3B c4 e4|f3e fa3 g3e dc3|A4 f3e d4 E3F|
G3E Gc3 A3F Ac3|B3c d3B c4 e4|f3e fa3 g3e cG3|A3f edcB c4 e3f|
g3a g3e c3d e3c|f3g a3f d4 e3f|g3a g3e c3d e3c|A4 f3e d4 E3F|
G3E Gc3 A3F Ac3|B3c d3B c4 e4|f3e fa3 g3e cG3|A3f edcB c4:|
